icons/desktop/20/sync-20.svg

<svg width="20" height="20" viewBox="0 0 20 20" fill="none" xmlns="http://www.w3.org/2000/svg">
<path d="M14.957 5.51368C15.3546 5.23924 15.9001 5.33895 16.1748 5.73611C17.0105 6.94444 17.4999 8.41131 17.5 9.98957C17.4999 14.1275 14.1422 17.4819 10 17.4819C9.99153 17.4819 9.98307 17.481 9.97461 17.4809V19.5003C9.97432 19.9417 9.44289 20.166 9.12598 19.8564L6.12598 16.9239C5.92701 16.7301 5.92518 16.4115 6.12109 16.2146L9.12109 13.205C9.43513 12.8897 9.97461 13.1128 9.97461 13.5582V15.7327C9.98307 15.7328 9.99153 15.7337 10 15.7337C13.1757 15.7336 15.7499 13.162 15.75 9.98957C15.7499 8.77706 15.3754 7.65451 14.7354 6.72923C14.4608 6.33222 14.5598 5.78819 14.957 5.51368Z" fill="black"/>
<path d="M10 0.500251C10.0001 0.0548248 10.5405 -0.167563 10.8545 0.148072L13.8545 3.15671C14.0503 3.35353 14.0476 3.67222 13.8486 3.86595L10.8486 6.79947C10.5316 7.1085 9.99908 6.88372 9.99902 6.44242L10 4.24544C6.8243 4.24544 4.25008 6.81713 4.25 9.98957C4.25 11.2064 4.62696 12.3325 5.27148 13.2606C5.54692 13.6573 5.44875 14.202 5.05176 14.4772C4.65471 14.7522 4.10941 14.6533 3.83398 14.2567C2.99273 13.0452 2.5 11.5736 2.5 9.98957C2.50008 5.85162 5.8578 2.49723 10 2.49723V0.500251Z" fill="black"/>
</svg>

<!-- This Source Code Form is subject to the terms of the Mozilla Public
   - License, v. 2.0. If a copy of the MPL was not distributed with this
   - file, You can obtain one at http://mozilla.org/MPL/2.0/. -->
<svg xmlns="http://www.w3.org/2000/svg" width="20" height="21" fill="context-fill" fill-opacity="context-fill-opacity" viewBox="0 0 20 21">
    <path d="M14.957 5.52a.876.876 0 0 1 1.218.222A7.5 7.5 0 0 1 10 17.5l-.025-.001v2.021a.5.5 0 0 1-.849.357l-3-2.936a.5.5 0 0 1-.005-.71l3-3.013a.5.5 0 0 1 .854.354v2.177H10a5.75 5.75 0 0 0 4.735-9.013.875.875 0 0 1 .222-1.217M10 .5a.5.5 0 0 1 .854-.352l3 3.012a.5.5 0 0 1-.005.71l-3 2.936a.5.5 0 0 1-.85-.357l.001-2.2a5.75 5.75 0 0 0-4.729 9.025.875.875 0 1 1-1.437.997A7.5 7.5 0 0 1 10 2.5z" />
</svg>
